X:18
T:Happy Fair One. WR1776.18, The
B:Wm.Randall CDs 1776
Z:vmp.Steve Mansfield 2015
M:2/4
L:1/8
W:Cast off and turn the 3d Lady cast off and turn the 3d Gent:
W:foot all 3 Cu. & turn your Part.s foot it & turn your Partners
Q:2/4=75
K:C
cegd | egag | fedc | dBAG |
AcfA | Bdgf | edcB | c2 C2 :|
|: gece | fgag | fdfA | {c}B2 AG |
EGcG | Acfa | gcdB | c2 C2 :|

